contributed-vectors/iqiyi.svg

<svg width="192" height="192" viewBox="0 0 192 192" fill="none" xmlns="http://www.w3.org/2000/svg">
<g clip-path="url(#clip0)">
<path d="M172 28.6V162.4C172 167.7 167.7 172 162.4 172H28.6C23.3 172 19 167.7 19 162.4V28.6C19 23.3 23.3 19 28.6 19H162.5C167.7 19 172 23.3 172 28.6Z" fill="#98DC9A"/>
<path d="M59 85.7C59 84.3 60.1 83.3 61.4 83.3C62.7 83.3 63.8 84.4 63.8 85.7C63.8 87 62.7 88.1 61.4 88.1C60.1 88.1 59 87 59 85.7Z" fill="white"/>
<path d="M63.3999 90.8H59.3999V107.7H63.3999V90.8Z" fill="white"/>
<path d="M93.8999 107.7H83.1999C82.2999 107.9 81.2999 108 80.3999 108C73.4999 108 67.8999 102.4 67.8999 95.5C67.8999 88.6 73.4999 83 80.3999 83C87.2999 83 92.8999 88.6 92.8999 95.5C92.8999 99.8 90.6999 103.6 87.4999 105.8L90.8999 104.5H93.8999V107.7ZM80.3999 104.1C85.1999 104.1 88.9999 100.4 88.9999 95.5C88.9999 90.7 85.2999 86.9 80.3999 86.9C75.5999 86.9 71.7999 90.6 71.7999 95.5C71.7999 100.3 75.5999 104.1 80.3999 104.1Z" fill="white"/>
<path d="M97.7 83.3H101.7V107.7H97.7V83.3Z" fill="white"/>
<path d="M116.8 96.1V107.6H112.8V96.2L104.3 83.3H109L114.9 92.5L120.8 83.3H125.4L116.8 96.1Z" fill="white"/>
<path d="M128 83H132V107.4H128V83Z" fill="white"/>
<path d="M131.9 79.3H127.9V73.3C127.9 72.2 127 71.3 125.9 71.3H65.3999C64.2999 71.3 63.3999 72.2 63.3999 73.3V79.3H59.3999V73.3C59.3999 70 62.0999 67.3 65.3999 67.3H125.9C129.2 67.3 131.9 70 131.9 73.3V79.3Z" fill="white"/>
<path d="M131.9 111.7H127.9V117.7C127.9 118.8 127 119.7 125.9 119.7H65.3999C64.2999 119.7 63.3999 118.8 63.3999 117.7V111.7H59.3999V117.7C59.3999 121 62.0999 123.7 65.3999 123.7H125.9C129.2 123.7 131.9 121 131.9 117.7V111.7Z" fill="white"/>
</g>
<defs>
<clipPath id="clip0">
<rect width="192" height="192" fill="white"/>
</clipPath>
</defs>
</svg>

<svg xmlns="http://www.w3.org/2000/svg" width="192" height="192" fill="none"><g clip-path="url(#a)"><path fill="#98DC9A" d="M172 28.6v133.8c0 5.3-4.3 9.6-9.6 9.6H28.6c-5.3 0-9.6-4.3-9.6-9.6V28.6c0-5.3 4.3-9.6 9.6-9.6h133.9c5.2 0 9.5 4.3 9.5 9.6Z"/><path fill="#fff" d="M59 85.7c0-1.4 1.1-2.4 2.4-2.4 1.3 0 2.4 1.1 2.4 2.4 0 1.3-1.1 2.4-2.4 2.4-1.3 0-2.4-1.1-2.4-2.4ZM63.4 90.8h-4v16.9h4V90.8ZM93.9 107.7H83.2c-.9.2-1.9.3-2.8.3-6.9 0-12.5-5.6-12.5-12.5S73.5 83 80.4 83s12.5 5.6 12.5 12.5c0 4.3-2.2 8.1-5.4 10.3l3.4-1.3h3v3.2Zm-13.5-3.6c4.8 0 8.6-3.7 8.6-8.6 0-4.8-3.7-8.6-8.6-8.6-4.8 0-8.6 3.7-8.6 8.6 0 4.8 3.8 8.6 8.6 8.6ZM97.7 83.3h4v24.4h-4V83.3ZM116.8 96.1v11.5h-4V96.2l-8.5-12.9h4.7l5.9 9.2 5.9-9.2h4.6l-8.6 12.8ZM128 83h4v24.4h-4V83ZM131.9 79.3h-4v-6c0-1.1-.9-2-2-2H65.4c-1.1 0-2 .9-2 2v6h-4v-6c0-3.3 2.7-6 6-6h60.5c3.3 0 6 2.7 6 6v6ZM131.9 111.7h-4v6c0 1.1-.9 2-2 2H65.4c-1.1 0-2-.9-2-2v-6h-4v6c0 3.3 2.7 6 6 6h60.5c3.3 0 6-2.7 6-6v-6Z"/></g><defs><clipPath id="a"><path fill="#fff" d="M0 0h192v192H0z"/></clipPath></defs></svg>
